src/img/icons/car.svg

<svg width="32" height="32" viewBox="0 0 32 32" fill="none" xmlns="http://www.w3.org/2000/svg">
<path d="M5.52187 24.0611V26.2593C5.52187 26.535 5.42856 26.766 5.24192 26.9524C5.05555 27.139 4.82451 27.2324 4.54882 27.2324H3.97305C3.69736 27.2324 3.46632 27.139 3.27995 26.9524C3.09332 26.766 3 26.535 3 26.2593V14.3016L6.17896 4.97305C6.28376 4.67309 6.46549 4.43599 6.72415 4.26175C6.98306 4.08725 7.27333 4 7.59497 4H24.7947C25.1086 4 25.3872 4.08699 25.6306 4.26098C25.8738 4.43522 26.0473 4.67258 26.151 4.97305L29.33 14.3016V26.2593C29.33 26.535 29.2367 26.766 29.0501 26.9524C28.8637 27.139 28.6326 27.2324 28.357 27.2324H27.7653C27.4826 27.2324 27.2524 27.139 27.0745 26.9524C26.8969 26.766 26.8081 26.535 26.8081 26.2593V24.0611H5.52187ZM5.71431 12.3559H26.6157L24.4156 5.9461H7.91442L5.71431 12.3559ZM8.86927 20.1395C9.41032 20.1395 9.86464 19.9524 10.2322 19.5781C10.5998 19.2038 10.7836 18.7514 10.7836 18.2209C10.7836 17.676 10.5965 17.2159 10.2222 16.8405C9.84787 16.4652 9.39664 16.2775 8.86849 16.2775C8.32563 16.2775 7.8655 16.4657 7.4881 16.8421C7.11045 17.2187 6.92162 17.6786 6.92162 18.2217C6.92162 18.7648 7.11096 19.2203 7.48965 19.5881C7.86834 19.9557 8.32821 20.1395 8.86927 20.1395ZM23.4844 20.1395C24.0252 20.1395 24.4837 19.9524 24.8601 19.5781C25.2362 19.2038 25.4243 18.7514 25.4243 18.2209C25.4243 17.676 25.2356 17.2159 24.8582 16.8405C24.4808 16.4652 24.0226 16.2775 23.4836 16.2775C22.9446 16.2775 22.4896 16.4657 22.1187 16.8421C21.7477 17.2187 21.5623 17.6786 21.5623 18.2217C21.5623 18.7648 21.751 19.2203 22.1284 19.5881C22.506 19.9557 22.958 20.1395 23.4844 20.1395ZM4.9461 22.1154H27.3839V14.3016H4.9461V22.1154Z" fill="#131212"/>
</svg>

<svg xmlns="http://www.w3.org/2000/svg" viewBox="0 0 32 32">
  <path fill="currentColor" d="M5.522 24.061v2.198a.94.94 0 0 1-.28.693.94.94 0 0 1-.693.28h-.576a.94.94 0 0 1-.693-.28.94.94 0 0 1-.28-.693V14.302l3.179-9.329c.105-.3.286-.537.545-.711.26-.175.55-.262.871-.262h17.2a1.401 1.401 0 0 1 1.356.973l3.179 9.329v11.957a.94.94 0 0 1-.28.693.94.94 0 0 1-.693.28h-.592a.912.912 0 0 1-.69-.28.966.966 0 0 1-.267-.693v-2.198H5.522Zm.192-11.705h20.902l-2.2-6.41H7.914l-2.2 6.41ZM8.87 20.14c.541 0 .996-.188 1.363-.562.368-.374.552-.827.552-1.357a1.88 1.88 0 0 0-.562-1.38 1.843 1.843 0 0 0-1.354-.564 1.88 1.88 0 0 0-1.38.565 1.874 1.874 0 0 0-.566 1.38c0 .543.189.998.568 1.366.378.368.838.552 1.38.552Zm14.615 0c.541 0 1-.188 1.376-.562.376-.374.564-.827.564-1.357 0-.545-.188-1.005-.566-1.38a1.877 1.877 0 0 0-1.374-.564c-.54 0-.994.189-1.365.565a1.891 1.891 0 0 0-.557 1.38c0 .543.189.998.566 1.366.378.368.83.552 1.356.552ZM4.946 22.115h22.438v-7.813H4.946v7.813Z"/>
</svg>
